;FLAVOR:Marlin
;TIME:1113
;Filament used: 1.26432m
;Layer height: 0.2
;MINX:89.506
;MINY:74.963
;MINZ:0.3
;MAXX:110.318
;MAXY:126.799
;MAXZ:9.9
;Generated with Cura_SteamEngine 4.13.1
M140 S60
M105
M190 S60
M104 S200
M105
M109 S200
M82 ;absolute extrusion mode
G21 ;metric values
 G90 ;absolute positioning
 M82 ;set extruder to absolute mode
 M107 ;start with the fan off
 G28 X0 Y0 ;move X/Y to min endstops
 G28 Z0 ;move Z to min endstops
 G1 Z15.0 F120 ;move the platform down 15mm
 G92 E0 ;zero the extruded length
 G1 F200 E6 ;extrude 6 mm of feed stock
 G92 E0 ;zero the extruded length again
 G1 F120 
 ;Put printing message on LCD screen
 M117 Printing...
G92 E0
G92 E0
G1 F1500 E-6.5
;LAYER_COUNT:50
;LAYER:0
M107
G0 F3600 X93.849 Y77.936 Z0.3
;TYPE:SKIRT
G1 F1500 E0
G1 F3000 X94.368 Y77.341 E0.03939
G1 X94.945 Y76.802 E0.07878
G1 X95.574 Y76.324 E0.1182
G1 X96.248 Y75.912 E0.15761
G1 X96.959 Y75.57 E0.19697
G1 X97.702 Y75.302 E0.23638
G1 X98.468 Y75.11 E0.27577
G1 X99.25 Y74.997 E0.31519
G1 X99.976 Y74.963 E0.35145
G1 X100.196 Y74.963 E0.36243
G1 X100.985 Y75.003 E0.40184
G1 X101.765 Y75.122 E0.44121
G1 X102.53 Y75.32 E0.48063
G1 X103.27 Y75.594 E0.52
G1 X103.979 Y75.942 E0.5594
G1 X104.65 Y76.36 E0.59884
G1 X105.274 Y76.843 E0.63821
G1 X105.847 Y77.386 E0.6776
G1 X106.362 Y77.985 E0.71701
G1 X106.774 Y78.572 E0.75279
G1 X106.997 Y78.922 E0.77349
G1 X107.387 Y79.608 E0.81286
G1 X107.708 Y80.336 E0.85255
G1 X107.881 Y80.79 E0.87679
G1 X108.123 Y81.537 E0.91597
G1 X108.345 Y82.679 E0.97401
G1 X108.402 Y83.164 E0.99837
G1 X108.455 Y84.074 E1.04385
G1 X108.454 Y102.454 E1.96083
G1 X108.447 Y102.576 E1.96693
G1 X108.552 Y103.028 E1.99008
G1 X108.652 Y103.812 E2.02951
G1 X108.675 Y104.407 E2.05922
G1 X108.675 Y105.197 E2.09863
G1 X108.751 Y105.531 E2.11572
G1 X108.847 Y106.315 E2.15512
G1 X108.848 Y107.412 E2.20985
G1 X108.782 Y108.36 E2.25726
G1 X108.632 Y109.433 E2.31132
G1 X108.418 Y110.444 E2.36287
G1 X108.215 Y111.208 E2.40231
G1 X108.036 Y111.683 E2.42764
G1 X108.141 Y111.782 E2.43484
G1 X108.659 Y112.377 E2.4742
G1 X109.115 Y113.022 E2.5136
G1 X109.503 Y113.71 E2.55301
G1 X109.82 Y114.434 E2.59244
G1 X110.062 Y115.185 E2.63181
G1 X110.226 Y115.958 E2.67123
G1 X110.312 Y116.743 E2.71063
G1 X110.318 Y117.532 E2.74999
G1 X110.244 Y118.319 E2.78943
G1 X110.09 Y119.093 E2.8288
G1 X109.86 Y119.848 E2.86818
G1 X109.554 Y120.577 E2.90762
G1 X109.052 Y121.466 E2.95856
G1 X108.927 Y121.657 E2.96994
G1 X108.479 Y122.273 E3.00795
G1 X108.106 Y122.737 E3.03765
G1 X107.529 Y123.378 E3.08067
G1 X106.891 Y124.013 E3.12558
G1 X106.304 Y124.541 E3.16497
G1 X105.667 Y125.007 E3.20435
G1 X105.042 Y125.377 E3.24058
G1 X104.195 Y125.826 E3.28841
G1 X103.48 Y126.16 E3.32778
G1 X102.734 Y126.42 E3.3672
G1 X101.966 Y126.603 E3.40659
G1 X101.361 Y126.691 E3.43709
G1 X100.745 Y126.756 E3.46799
G1 X99.926 Y126.799 E3.50891
G1 X99.884 Y126.799 E3.511
G1 X99.089 Y126.758 E3.55072
G1 X98.767 Y126.725 E3.56687
G1 X97.986 Y126.605 E3.60629
G1 X97.33 Y126.44 E3.64003
G1 X96.58 Y126.216 E3.67909
G1 X95.836 Y125.952 E3.71847
G1 X95.122 Y125.614 E3.75788
G1 X94.446 Y125.206 E3.79727
G1 X93.857 Y124.766 E3.83395
G1 X93.299 Y124.307 E3.87
G1 X92.841 Y123.899 E3.9006
G1 X92.397 Y123.471 E3.93137
G1 X91.727 Y122.738 E3.98091
G1 X91.316 Y122.226 E4.01367
G1 X90.888 Y121.638 E4.04995
G1 X90.793 Y121.494 E4.05856
G1 X90.392 Y120.814 E4.09795
G1 X90.062 Y120.097 E4.13732
G1 X89.806 Y119.35 E4.17672
G1 X89.627 Y118.58 E4.21616
G1 X89.527 Y117.797 E4.25554
G1 X89.506 Y117.008 E4.29492
G1 X89.566 Y116.22 E4.33435
G1 X89.704 Y115.443 E4.37372
G1 X89.921 Y114.683 E4.41315
G1 X90.213 Y113.95 E4.45251
G1 X90.578 Y113.249 E4.49194
G1 X91.012 Y112.59 E4.53131
G1 X91.51 Y111.977 E4.57071
G1 X91.793 Y111.694 E4.59068
G1 X91.622 Y111.247 E4.61456
G1 X91.405 Y110.428 E4.65683
G1 X91.19 Y109.398 E4.70932
G1 X91.044 Y108.354 E4.76191
G1 X90.978 Y107.42 E4.80863
G1 X90.963 Y106.63 E4.84805
G1 X91.027 Y105.843 E4.88744
G1 X91.152 Y105.165 E4.92184
G1 X91.152 Y104.407 E4.95965
G1 X91.192 Y103.618 E4.99907
G1 X91.311 Y102.838 E5.03843
G1 X91.509 Y102.073 E5.07786
G1 X91.717 Y101.511 E5.10775
G1 X91.717 Y84.063 E5.97824
G1 X91.772 Y83.14 E6.02437
G1 X91.828 Y82.67 E6.04798
G1 X91.961 Y81.892 E6.08736
G1 X92.079 Y81.429 E6.1112
G1 X92.272 Y80.842 E6.14202
G1 X92.436 Y80.403 E6.1654
G1 X92.851 Y79.481 E6.21585
G1 X93.169 Y78.931 E6.24754
G1 X93.392 Y78.58 E6.26829
G1 X93.849 Y77.936 E6.30769
G0 F3600 X94.176 Y78.168
G1 F3000 X94.684 Y77.591 E6.34604
G1 X95.249 Y77.069 E6.38442
G1 X95.866 Y76.609 E6.42281
G1 X96.527 Y76.216 E6.46118
G1 X97.225 Y75.893 E6.49955
G1 X97.953 Y75.645 E6.53792
G1 X98.703 Y75.473 E6.57631
G1 X99.466 Y75.381 E6.61465
G1 X99.976 Y75.363 E6.64011
G1 X100.196 Y75.363 E6.65109
G1 X100.964 Y75.403 E6.68945
G1 X101.724 Y75.522 E6.72783
G1 X102.467 Y75.72 E6.7662
G1 X103.186 Y75.994 E6.80458
G1 X103.872 Y76.341 E6.84294
G1 X104.519 Y76.757 E6.88131
G1 X105.119 Y77.238 E6.91968
G1 X105.666 Y77.779 E6.95806
G1 X106.154 Y78.374 E6.99645
G1 X106.437 Y78.787 E7.02143
G1 X106.66 Y79.137 E7.04214
G1 X107.039 Y79.806 E7.0805
G1 X107.334 Y80.478 E7.11711
G1 X107.507 Y80.932 E7.14135
G1 X107.737 Y81.642 E7.17858
G1 X107.947 Y82.725 E7.23362
G1 X108.004 Y83.21 E7.25798
G1 X108.055 Y84.074 E7.30116
G1 X108.054 Y102.454 E8.21815
G1 X108.045 Y102.601 E8.22549
G1 X108.179 Y103.217 E8.25694
G1 X108.263 Y103.982 E8.29534
G1 X108.275 Y104.407 E8.31655
G1 X108.275 Y105.233 E8.35776
G1 X108.383 Y105.758 E8.3845
G1 X108.459 Y106.523 E8.42286
G1 X108.449 Y107.384 E8.46581
G1 X108.383 Y108.332 E8.51322
G1 X108.241 Y109.35 E8.5645
G1 X108.027 Y110.361 E8.61606
G1 X107.828 Y111.105 E8.65448
G1 X107.567 Y111.788 E8.69096
G1 X108.003 Y112.22 E8.72158
G1 X108.49 Y112.816 E8.75998
G1 X108.912 Y113.458 E8.79831
G1 X109.266 Y114.142 E8.83674
G1 X109.546 Y114.858 E8.87509
G1 X109.751 Y115.599 E8.91345
G1 X109.877 Y116.358 E8.95183
G1 X109.925 Y117.126 E8.99022
G1 X109.892 Y117.894 E9.02858
G1 X109.78 Y118.655 E9.06695
G1 X109.589 Y119.4 E9.10532
G1 X109.322 Y120.121 E9.14368
G1 X108.981 Y120.811 E9.18208
G1 X108.717 Y121.247 E9.20751
G1 X108.592 Y121.438 E9.2189
G1 X108.167 Y122.022 E9.25493
G1 X107.794 Y122.486 E9.28463
G1 X107.247 Y123.095 E9.32547
G1 X106.609 Y123.73 E9.37038
G1 X106.037 Y124.243 E9.40871
G1 X105.414 Y124.695 E9.44711
G1 X104.855 Y125.023 E9.47945
G1 X104.008 Y125.472 E9.52727
G1 X103.311 Y125.797 E9.56564
G1 X102.583 Y126.047 E9.60404
G1 X101.834 Y126.22 E9.6424
G1 X101.319 Y126.293 E9.66835
G1 X100.703 Y126.358 E9.69925
G1 X99.926 Y126.399 E9.73807
G1 X99.884 Y126.399 E9.74016
G1 X99.13 Y126.36 E9.77783
G1 X98.808 Y126.327 E9.79398
G1 X98.048 Y126.209 E9.83235
G1 X97.444 Y126.057 E9.86342
G1 X96.694 Y125.833 E9.90247
G1 X95.97 Y125.574 E9.94084
G1 X95.276 Y125.242 E9.97922
G1 X94.62 Y124.84 E10.0176
G1 X94.111 Y124.457 E10.04938
G1 X93.553 Y123.998 E10.08543
G1 X93.118 Y123.611 E10.11448
G1 X92.674 Y123.183 E10.14525
G1 X92.039 Y122.487 E10.19225
G1 X91.628 Y121.975 E10.225
G1 X91.222 Y121.418 E10.25939
G1 X91.127 Y121.274 E10.268
G1 X90.737 Y120.611 E10.30637
G1 X90.419 Y119.911 E10.34473
G1 X90.175 Y119.182 E10.38309
G1 X90.007 Y118.431 E10.42148
G1 X89.919 Y117.667 E10.45985
G1 X89.91 Y116.898 E10.49822
G1 X89.981 Y116.132 E10.5366
G1 X90.132 Y115.377 E10.57501
G1 X90.36 Y114.643 E10.61335
G1 X90.662 Y113.936 E10.65171
G1 X91.037 Y113.264 E10.6901
G1 X91.479 Y112.635 E10.72846
G1 X91.985 Y112.055 E10.76686
G1 X92.26 Y111.798 E10.78564
G1 X91.991 Y111.085 E10.82365
G1 X91.796 Y110.346 E10.86179
G1 X91.581 Y109.316 E10.91428
G1 X91.443 Y108.326 E10.96415
G1 X91.377 Y107.392 E11.01086
G1 X91.363 Y106.623 E11.04923
G1 X91.429 Y105.856 E11.08764
G1 X91.552 Y105.216 E11.12016
G1 X91.552 Y104.407 E11.16052
G1 X91.592 Y103.639 E11.19888
G1 X91.711 Y102.879 E11.23726
G1 X91.909 Y102.136 E11.27562
G1 X92.117 Y101.59 E11.30477
G1 X92.117 Y84.063 E12.1792
G1 X92.169 Y83.187 E12.22298
G1 X92.225 Y82.717 E12.2466
G1 X92.356 Y81.959 E12.28497
G1 X92.464 Y81.539 E12.30661
G1 X92.647 Y80.982 E12.33586
G1 X92.811 Y80.543 E12.35924
G1 X93.205 Y79.667 E12.40716
G1 X93.507 Y79.146 E12.4372
G1 X93.73 Y78.795 E12.45795
G1 X94.176 Y78.168 E12.49634
G0 F3600 X94.502 Y78.4
G1 F3000 X94.999 Y77.841 E12.53366
G1 X95.552 Y77.338 E12.57095
G1 X96.157 Y76.897 E12.6083
G1 X96.804 Y76.523 E12.64559
G1 X97.488 Y76.22 E12.68291
G1 X98.201 Y75.992 E12.72025
G1 X98.934 Y75.841 E12.75759
G1 X99.976 Y75.763 E12.80972
G1 X100.196 Y75.763 E12.8207
G1 X100.943 Y75.803 E12.85802
G1 X101.681 Y75.922 E12.89531
G1 X102.403 Y76.12 E12.93267
G1 X103.099 Y76.393 E12.96996
G1 X103.762 Y76.74 E13.0073
G1 X104.385 Y77.155 E13.04464
G1 X104.959 Y77.634 E13.08194
G1 X105.48 Y78.171 E13.11927
G1 X106.1 Y79.002 E13.171
G1 X106.323 Y79.352 E13.1917
G1 X106.69 Y80.003 E13.22899
G1 X106.96 Y80.62 E13.26259
G1 X107.133 Y81.074 E13.28683
G1 X107.351 Y81.747 E13.32212
G1 X107.55 Y82.772 E13.37421
G1 X107.607 Y83.257 E13.39857
G1 X107.655 Y84.074 E13.43941
G1 X107.654 Y102.454 E14.35639
G1 X107.656 Y102.67 E14.36716
G1 X107.803 Y103.403 E14.40446
G1 X107.875 Y104.407 E14.45468
G1 X107.876 Y105.244 E14.49644
G1 X108.01 Y105.98 E14.53376
G1 X108.066 Y106.726 E14.57108
G1 X108.05 Y107.356 E14.60252
G1 X107.984 Y108.304 E14.64994
G1 X107.849 Y109.268 E14.6985
G1 X107.635 Y110.279 E14.75006
G1 X107.441 Y111.001 E14.78735
G1 X107.172 Y111.699 E14.82467
G1 X107.077 Y111.89 E14.83532
G1 X107.341 Y112.115 E14.85262
G1 X107.856 Y112.658 E14.88996
G1 X108.31 Y113.253 E14.9273
G1 X108.697 Y113.893 E14.96461
G1 X109.014 Y114.571 E15.00195
G1 X109.257 Y115.278 E15.03925
G1 X109.424 Y116.007 E15.07656
G1 X109.511 Y116.75 E15.11388
G1 X109.518 Y117.498 E15.1512
G1 X109.446 Y118.243 E15.18854
G1 X109.295 Y118.976 E15.22588
G1 X109.066 Y119.688 E15.26319
G1 X108.763 Y120.372 E15.30052
G1 X108.382 Y121.028 E15.33837
G1 X108.257 Y121.219 E15.34975
G1 X107.856 Y121.772 E15.38383
G1 X107.483 Y122.236 E15.41353
G1 X106.965 Y122.811 E15.45215
G1 X106.327 Y123.446 E15.49705
G1 X105.769 Y123.945 E15.5344
G1 X105.162 Y124.381 E15.57169
G1 X104.668 Y124.67 E15.60024
G1 X103.821 Y125.119 E15.64807
G1 X103.142 Y125.433 E15.68539
G1 X102.433 Y125.674 E15.72275
G1 X101.703 Y125.837 E15.76007
G1 X101.277 Y125.895 E15.78152
G1 X100.661 Y125.96 E15.81242
G1 X99.926 Y125.999 E15.84914
G1 X99.884 Y125.999 E15.85123
G1 X99.17 Y125.963 E15.8869
G1 X98.848 Y125.93 E15.90305
G1 X98.109 Y125.814 E15.94037
G1 X97.559 Y125.673 E15.9687
G1 X96.809 Y125.449 E16.00775
G1 X96.104 Y125.197 E16.0451
G1 X95.431 Y124.871 E16.08241
G1 X94.796 Y124.476 E16.11972
G1 X94.365 Y124.148 E16.14674
G1 X93.807 Y123.689 E16.18279
G1 X93.396 Y123.323 E16.21024
G1 X92.952 Y122.895 E16.24101
G1 X92.351 Y122.237 E16.28547
G1 X91.94 Y121.725 E16.31823
G1 X91.556 Y121.198 E16.35076
G1 X91.461 Y121.054 E16.35936
G1 X91.083 Y120.408 E16.39671
G1 X90.776 Y119.726 E16.43402
G1 X90.544 Y119.015 E16.47133
G1 X90.388 Y118.283 E16.50867
G1 X90.312 Y117.539 E16.54598
G1 X90.316 Y116.791 E16.5833
G1 X90.399 Y116.048 E16.6206
G1 X90.562 Y115.317 E16.65797
G1 X90.801 Y114.609 E16.69525
G1 X91.115 Y113.929 E16.73261
G1 X91.499 Y113.288 E16.76989
G1 X91.949 Y112.69 E16.80723
G1 X92.461 Y112.145 E16.84454
G1 X92.754 Y111.893 E16.86382
G1 X92.62 Y111.625 E16.87877
G1 X92.359 Y110.924 E16.91608
G1 X92.188 Y110.264 E16.9501
G1 X91.973 Y109.234 E17.00259
G1 X91.842 Y108.297 E17.0498
G1 X91.776 Y107.363 E17.09651
G1 X91.764 Y106.615 E17.13383
G1 X91.831 Y105.87 E17.17115
G1 X91.952 Y105.263 E17.20203
G1 X91.952 Y104.407 E17.24474
G1 X91.992 Y103.66 E17.28206
G1 X92.111 Y102.922 E17.31935
G1 X92.309 Y102.2 E17.3567
G1 X92.517 Y101.67 E17.38511
G1 X92.517 Y84.063 E18.26352
G1 X92.566 Y83.235 E18.30491
G1 X92.622 Y82.765 E18.32852
G1 X92.842 Y81.67 E18.38424
G1 X93.022 Y81.122 E18.41302
G1 X93.186 Y80.683 E18.4364
G1 X93.559 Y79.854 E18.48175
G1 X93.845 Y79.36 E18.51023
G1 X94.068 Y79.009 E18.53098
G1 X94.502 Y78.4 E18.56828
G0 F3600 X94.828 Y78.633
G1 F3000 X95.313 Y78.092 E18.60453
G1 X95.854 Y77.608 E18.64075
G1 X96.446 Y77.186 E18.67702
G1 X97.08 Y76.832 E18.71325
G1 X97.749 Y76.55 E18.74947
G1 X98.445 Y76.343 E18.78569
G1 X99.16 Y76.214 E18.82194
G1 X99.976 Y76.163 E18.86273
G1 X100.196 Y76.163 E18.87371
G1 X100.921 Y76.203 E18.90993
G1 X101.638 Y76.322 E18.94619
G1 X102.337 Y76.52 E18.98244
G1 X103.01 Y76.793 E19.01867
G1 X103.649 Y77.138 E19.0549
G1 X104.246 Y77.552 E19.09115
G1 X104.794 Y78.028 E19.12736
G1 X105.287 Y78.562 E19.16362
G1 X105.762 Y79.217 E19.20399
G1 X105.985 Y79.567 E19.22469
G1 X106.341 Y80.2 E19.26092
G1 X106.586 Y80.763 E19.29156
G1 X106.759 Y81.217 E19.31579
G1 X106.965 Y81.852 E19.3491
G1 X107.153 Y82.819 E19.39825
G1 X107.21 Y83.304 E19.42261
G1 X107.255 Y84.074 E19.46109
G1 X107.254 Y102.454 E20.37807
G1 X107.24 Y102.691 E20.38992
G1 X107.294 Y102.871 E20.39929
G1 X107.424 Y103.586 E20.43555
G1 X107.475 Y104.407 E20.47659
G1 X107.475 Y105.32 E20.52214
G1 X107.519 Y105.481 E20.53047
G1 X107.633 Y106.199 E20.56674
G1 X107.667 Y106.924 E20.60295
G1 X107.651 Y107.328 E20.62312
G1 X107.585 Y108.276 E20.67053
G1 X107.458 Y109.185 E20.71632
G1 X107.244 Y110.196 E20.76787
G1 X107.055 Y110.897 E20.8041
G1 X106.789 Y111.573 E20.84034
G1 X106.579 Y111.994 E20.86381
G1 X106.678 Y112.066 E20.86992
G1 X107.217 Y112.553 E20.90616
G1 X107.698 Y113.097 E20.94239
G1 X108.118 Y113.69 E20.97864
G1 X108.469 Y114.326 E21.01488
G1 X108.748 Y114.996 E21.05109
G1 X108.952 Y115.694 E21.08737
G1 X109.078 Y116.409 E21.12359
G1 X109.125 Y117.134 E21.15984
G1 X109.091 Y117.859 E21.19605
G1 X108.979 Y118.577 E21.2323
G1 X108.788 Y119.278 E21.26855
G1 X108.521 Y119.953 E21.30477
G1 X108.047 Y120.809 E21.35358
G1 X107.922 Y121 E21.36497
G1 X107.544 Y121.521 E21.39708
G1 X107.171 Y121.985 E21.42679
G1 X106.683 Y122.528 E21.46321
G1 X106.045 Y123.163 E21.50812
G1 X105.503 Y123.646 E21.54434
G1 X104.911 Y124.067 E21.58058
G1 X104.48 Y124.316 E21.60541
G1 X103.633 Y124.765 E21.65324
G1 X102.974 Y125.07 E21.68947
G1 X102.285 Y125.3 E21.72571
G1 X101.235 Y125.498 E21.77901
G1 X100.619 Y125.563 E21.80992
G1 X99.926 Y125.599 E21.84454
G1 X99.884 Y125.599 E21.84663
G1 X99.211 Y125.565 E21.88025
G1 X98.889 Y125.532 E21.8964
G1 X98.172 Y125.418 E21.93262
G1 X97.673 Y125.29 E21.95832
G1 X96.923 Y125.066 E21.99737
G1 X96.24 Y124.82 E22.03359
G1 X95.587 Y124.501 E22.06985
G1 X94.974 Y124.111 E22.1061
G1 X94.619 Y123.839 E22.12841
G1 X94.061 Y123.38 E22.16446
G1 X93.673 Y123.035 E22.19036
G1 X93.229 Y122.607 E22.22113
G1 X92.663 Y121.987 E22.26301
G1 X92.252 Y121.475 E22.29576
G1 X91.89 Y120.977 E22.32648
G1 X91.795 Y120.833 E22.33509
G1 X91.429 Y120.206 E22.37131
G1 X91.134 Y119.542 E22.40756
G1 X90.914 Y118.85 E22.44378
G1 X90.771 Y118.138 E22.48002
G1 X90.708 Y117.414 E22.51627
G1 X90.724 Y116.688 E22.5525
G1 X90.82 Y115.968 E22.58874
G1 X90.994 Y115.263 E22.62497
G1 X91.245 Y114.581 E22.66122
G1 X91.57 Y113.931 E22.69748
G1 X91.963 Y113.321 E22.73368
G1 X92.422 Y112.758 E22.76992
G1 X92.939 Y112.248 E22.80615
G1 X93.255 Y112 E22.82619
G1 X92.979 Y111.446 E22.85707
G1 X92.729 Y110.764 E22.89331
G1 X92.579 Y110.183 E22.92325
G1 X92.364 Y109.153 E22.97574
G1 X92.241 Y108.269 E23.02027
G1 X92.175 Y107.335 E23.06699
G1 X92.164 Y106.609 E23.10321
G1 X92.233 Y105.886 E23.13944
G1 X92.352 Y105.31 E23.16879
G1 X92.352 Y104.407 E23.21384
G1 X92.392 Y103.682 E23.25006
G1 X92.511 Y102.965 E23.28633
G1 X92.709 Y102.266 E23.32257
G1 X92.917 Y101.753 E23.35019
G1 X92.917 Y84.063 E24.23275
G1 X92.963 Y83.282 E24.27178
G1 X93.019 Y82.812 E24.29539
G1 X93.227 Y81.78 E24.34791
G1 X93.396 Y81.262 E24.3751
G1 X93.56 Y80.823 E24.39848
G1 X93.913 Y80.04 E24.44133
G1 X94.182 Y79.575 E24.46813
G1 X94.405 Y79.224 E24.48888
G1 X94.828 Y78.633 E24.52514
G0 F3600 X95.153 Y78.866
G1 F3000 X95.626 Y78.345 E24.56024
G1 X96.155 Y77.88 E24.59538
G1 X96.733 Y77.479 E24.63048
G1 X97.353 Y77.145 E24.66561
G1 X98.007 Y76.884 E24.70074
G1 X98.686 Y76.699 E24.73585
G1 X99.382 Y76.592 E24.77098
G1 X99.976 Y76.563 E24.80065
G1 X100.196 Y76.563 E24.81163
G1 X100.899 Y76.603 E24.84676
G1 X101.593 Y76.722 E24.88189
G1 X102.268 Y76.92 E24.91698
