;FLAVOR:Marlin
;TIME:1598
;Filament used: 0.708851m
;Layer height: 0.2
;MINX:87.91
;MINY:86.867
;MINZ:0.3
;MAXX:110.039
;MAXY:107.855
;MAXZ:41.7
;Generated with Cura_SteamEngine 4.13.1
M140 S60
M105
M190 S60
M104 S200
M105
M109 S200
M82 ;absolute extrusion mode
G21 ;metric values
 G90 ;absolute positioning
 M82 ;set extruder to absolute mode
 M107 ;start with the fan off
 G28 X0 Y0 ;move X/Y to min endstops
 G28 Z0 ;move Z to min endstops
 G1 Z15.0 F120 ;move the platform down 15mm
 G92 E0 ;zero the extruded length
 G1 F200 E6 ;extrude 6 mm of feed stock
 G92 E0 ;zero the extruded length again
 G1 F120 
 ;Put printing message on LCD screen
 M117 Printing...
G92 E0
G92 E0
G1 F1500 E-6.5
;LAYER_COUNT:210
;LAYER:0
M107
G0 F3600 X93.695 Y89.366 Z0.3
;TYPE:SKIRT
G1 F1500 E0
G1 F1800 X94.261 Y88.814 E0.03944
G1 X94.879 Y88.323 E0.07882
G1 X95.543 Y87.896 E0.11821
G1 X96.248 Y87.539 E0.15763
G1 X96.984 Y87.255 E0.19699
G1 X97.746 Y87.047 E0.2364
G1 X98.525 Y86.917 E0.2758
G1 X99.313 Y86.867 E0.31519
G1 X100.435 Y86.933 E0.37127
G1 X100.724 Y86.971 E0.38581
G1 X101.501 Y87.113 E0.42522
G1 X102.259 Y87.333 E0.46459
G1 X102.991 Y87.629 E0.50399
G1 X103.69 Y87.997 E0.5434
G1 X104.347 Y88.434 E0.58276
G1 X104.957 Y88.936 E0.62218
G1 X105.514 Y89.496 E0.66158
G1 X106.011 Y90.11 E0.70099
G1 X106.443 Y90.771 E0.74039
G1 X106.806 Y91.472 E0.77977
G1 X107.096 Y92.207 E0.81919
G1 X107.142 Y92.386 E0.82841
G1 X107.365 Y92.707 E0.84791
G1 X107.957 Y93.713 E0.90615
G1 X108.412 Y94.638 E0.95758
G1 X108.884 Y95.403 E1.00242
G1 X109.265 Y96.095 E1.04183
G1 X109.573 Y96.822 E1.08122
G1 X109.806 Y97.576 E1.1206
G1 X109.962 Y98.351 E1.16004
G1 X110.039 Y99.137 E1.19944
G1 X110.035 Y99.926 E1.2388
G1 X109.952 Y100.712 E1.27823
G1 X109.79 Y101.484 E1.31759
G1 X109.551 Y102.237 E1.357
G1 X109.237 Y102.961 E1.39637
G1 X108.634 Y103.977 E1.45532
G1 X108.484 Y104.191 E1.46835
G1 X107.999 Y104.814 E1.50774
G1 X107.453 Y105.384 E1.54712
G1 X106.852 Y105.897 E1.58655
G1 X106.203 Y106.346 E1.62592
G1 X105.511 Y106.727 E1.66533
G1 X104.784 Y107.036 E1.70474
G1 X104.03 Y107.271 E1.74414
G1 X103.256 Y107.427 E1.78353
G1 X102.47 Y107.505 E1.82294
G1 X101.681 Y107.503 E1.8623
G1 X100.895 Y107.421 E1.90173
G1 X100.209 Y107.288 E1.93659
G1 X99.991 Y107.288 E1.94747
G1 X99.489 Y107.323 E1.97257
G1 X98.808 Y107.414 E2.00685
G1 X97.375 Y107.702 E2.07977
G1 X96.594 Y107.818 E2.11916
G1 X95.805 Y107.855 E2.15857
G1 X95.016 Y107.812 E2.19799
G1 X94.236 Y107.689 E2.23739
G1 X93.472 Y107.488 E2.2768
G1 X92.733 Y107.211 E2.31617
G1 X92.025 Y106.86 E2.3556
G1 X91.357 Y106.44 E2.39497
G1 X90.734 Y105.954 E2.43439
G1 X90.164 Y105.408 E2.47377
G1 X89.652 Y104.807 E2.51315
G1 X89.203 Y104.157 E2.55257
G1 X88.84 Y103.503 E2.58988
G1 X88.704 Y103.227 E2.60524
G1 X88.392 Y102.502 E2.64461
G1 X88.154 Y101.749 E2.68401
G1 X87.993 Y100.975 E2.72345
G1 X87.912 Y100.19 E2.76283
G1 X87.91 Y99.4 E2.80224
G1 X87.988 Y98.614 E2.84165
G1 X88.146 Y97.84 E2.88106
G1 X88.38 Y97.086 E2.92044
G1 X88.69 Y96.36 E2.95983
G1 X89.072 Y95.669 E2.99922
G1 X89.521 Y95.02 E3.03859
G1 X90.034 Y94.419 E3.07801
G1 X90.575 Y93.9 E3.11542
G1 X91.014 Y93.517 E3.14448
G1 X91.313 Y93.177 E3.16707
G1 X91.558 Y92.812 E3.189
G1 X92.189 Y91.706 E3.25253
G1 X92.372 Y91.321 E3.2738
G1 X92.746 Y90.626 E3.31317
G1 X93.189 Y89.972 E3.35258
G1 X93.695 Y89.366 E3.39197
G0 F3600 X94.03 Y89.594
G1 F1800 X94.585 Y89.062 E3.43032
G1 X95.193 Y88.591 E3.46869
G1 X95.847 Y88.185 E3.5071
G1 X96.539 Y87.849 E3.54548
G1 X97.262 Y87.587 E3.58384
G1 X98.008 Y87.402 E3.62219
G1 X98.77 Y87.294 E3.66058
G1 X99.539 Y87.267 E3.69897
G1 X100.383 Y87.329 E3.74119
G1 X100.672 Y87.367 E3.75574
G1 X101.428 Y87.507 E3.79409
G1 X102.166 Y87.724 E3.83247
G1 X102.877 Y88.017 E3.87084
G1 X103.554 Y88.383 E3.90923
G1 X104.189 Y88.816 E3.94758
G1 X104.776 Y89.313 E3.98595
G1 X105.308 Y89.868 E4.02431
G1 X105.78 Y90.476 E4.06271
G1 X106.186 Y91.129 E4.10107
G1 X106.522 Y91.821 E4.13945
G1 X106.785 Y92.544 E4.17783
G1 X107.036 Y92.935 E4.20101
G1 X107.598 Y93.889 E4.25625
G1 X108.061 Y94.83 E4.30857
G1 X108.544 Y95.613 E4.35447
G1 X108.913 Y96.288 E4.39285
G1 X109.211 Y96.997 E4.43122
G1 X109.433 Y97.733 E4.46957
G1 X109.578 Y98.489 E4.50798
G1 X109.643 Y99.255 E4.54633
G1 X109.628 Y100.024 E4.5847
G1 X109.534 Y100.787 E4.62306
G1 X109.361 Y101.537 E4.66146
G1 X109.111 Y102.264 E4.69981
G1 X108.787 Y102.962 E4.7382
G1 X108.307 Y103.747 E4.78411
G1 X108.157 Y103.961 E4.79715
G1 X107.683 Y104.567 E4.83553
G1 X107.149 Y105.121 E4.87392
G1 X106.561 Y105.616 E4.91227
G1 X105.924 Y106.048 E4.95067
G1 X105.246 Y106.411 E4.98903
G1 X104.534 Y106.701 E5.02739
G1 X103.795 Y106.917 E5.0658
G1 X103.038 Y107.054 E5.10418
G1 X102.271 Y107.112 E5.14256
G1 X101.503 Y107.09 E5.18089
G1 X100.582 Y106.957 E5.22731
G1 X100.253 Y106.888 E5.24408
G1 X99.979 Y106.888 E5.25775
G1 X99.455 Y106.924 E5.28396
G1 X98.737 Y107.02 E5.3201
G1 X97.296 Y107.31 E5.39343
G1 X96.535 Y107.422 E5.43181
G1 X95.766 Y107.455 E5.47021
G1 X94.999 Y107.407 E5.50855
G1 X94.24 Y107.281 E5.54693
G1 X93.499 Y107.076 E5.58529
G1 X92.782 Y106.795 E5.62371
G1 X92.099 Y106.442 E5.66207
G1 X91.457 Y106.019 E5.70042
G1 X90.861 Y105.532 E5.73882
G1 X90.32 Y104.986 E5.77717
G1 X89.837 Y104.387 E5.81556
G1 X89.42 Y103.741 E5.85392
G1 X89.063 Y103.05 E5.89272
G1 X88.759 Y102.343 E5.93112
G1 X88.531 Y101.609 E5.96946
G1 X88.38 Y100.855 E6.00783
G1 X88.307 Y100.089 E6.04622
G1 X88.315 Y99.32 E6.08458
G1 X88.403 Y98.556 E6.12295
G1 X88.569 Y97.805 E6.16132
G1 X88.813 Y97.075 E6.19972
G1 X89.131 Y96.375 E6.23808
G1 X89.519 Y95.711 E6.27645
G1 X89.975 Y95.091 E6.31485
G1 X90.493 Y94.522 E6.35324
G1 X90.838 Y94.201 E6.37675
G1 X91.282 Y93.814 E6.40613
G1 X91.632 Y93.418 E6.4325
G1 X91.895 Y93.028 E6.45597
G1 X92.543 Y91.892 E6.52121
G1 X92.733 Y91.492 E6.54331
G1 X93.099 Y90.816 E6.58166
G1 X93.532 Y90.181 E6.62
G1 X94.03 Y89.594 E6.65841
G0 F3600 X94.363 Y89.823
G1 F1800 X94.909 Y89.312 E6.69572
G1 X95.506 Y88.861 E6.73305
G1 X96.148 Y88.477 E6.77037
G1 X96.827 Y88.163 E6.80769
G1 X97.536 Y87.924 E6.84502
G1 X98.266 Y87.761 E6.88233
G1 X99.009 Y87.678 E6.91963
G1 X99.758 Y87.674 E6.957
G1 X100.331 Y87.726 E6.98571
G1 X100.62 Y87.764 E7.00025
G1 X101.355 Y87.901 E7.03755
G1 X102.072 Y88.115 E7.07488
G1 X102.761 Y88.405 E7.11217
G1 X103.416 Y88.767 E7.14951
G1 X104.028 Y89.197 E7.18683
G1 X104.591 Y89.69 E7.22416
G1 X105.098 Y90.239 E7.26145
G1 X105.544 Y90.84 E7.29878
G1 X105.923 Y91.485 E7.33611
G1 X106.231 Y92.167 E7.37344
G1 X106.424 Y92.754 E7.40427
G1 X106.708 Y93.163 E7.42911
G1 X107.239 Y94.065 E7.48133
G1 X107.709 Y95.022 E7.53452
G1 X108.204 Y95.823 E7.5815
G1 X108.562 Y96.48 E7.61883
G1 X108.848 Y97.171 E7.65614
G1 X109.059 Y97.889 E7.69347
G1 X109.192 Y98.625 E7.73079
G1 X109.246 Y99.371 E7.7681
G1 X109.22 Y100.118 E7.80539
G1 X109.114 Y100.859 E7.84274
G1 X108.93 Y101.584 E7.88006
G1 X108.669 Y102.285 E7.91737
G1 X108.335 Y102.955 E7.95472
G1 X107.979 Y103.518 E7.98796
G1 X107.829 Y103.732 E8.00099
G1 X107.368 Y104.321 E8.03831
G1 X106.846 Y104.857 E8.07564
G1 X106.27 Y105.334 E8.11295
G1 X105.646 Y105.747 E8.15028
G1 X104.982 Y106.092 E8.18761
G1 X104.285 Y106.363 E8.22492
G1 X103.563 Y106.559 E8.26225
G1 X102.824 Y106.676 E8.29957
G1 X102.077 Y106.714 E8.33689
G1 X101.33 Y106.672 E8.37422
G1 X100.664 Y106.566 E8.40786
G1 X100.293 Y106.488 E8.42678
G1 X99.966 Y106.488 E8.44309
G1 X99.406 Y106.527 E8.4711
G1 X98.68 Y106.624 E8.50764
G1 X97.217 Y106.918 E8.58209
G1 X96.477 Y107.026 E8.6194
G1 X95.729 Y107.054 E8.65674
G1 X94.983 Y107.003 E8.69405
G1 X94.246 Y106.872 E8.73139
G1 X93.528 Y106.663 E8.7687
G1 X92.836 Y106.379 E8.80602
G1 X92.178 Y106.023 E8.84334
G1 X91.562 Y105.598 E8.88068
G1 X90.995 Y105.11 E8.918
G1 X90.483 Y104.565 E8.95531
G1 X90.033 Y103.968 E8.99261
G1 X89.558 Y103.149 E9.03984
G1 X89.422 Y102.873 E9.05519
G1 X89.128 Y102.185 E9.09252
G1 X88.908 Y101.47 E9.12984
G1 X88.767 Y100.736 E9.16713
G1 X88.704 Y99.99 E9.20448
G1 X88.722 Y99.242 E9.24181
G1 X88.819 Y98.501 E9.27909
G1 X88.994 Y97.773 E9.31645
G1 X89.247 Y97.069 E9.35377
G1 X89.573 Y96.396 E9.39108
G1 X89.969 Y95.761 E9.42841
G1 X90.43 Y95.172 E9.46573
G1 X91.101 Y94.503 E9.513
G1 X91.556 Y94.107 E9.5431
G1 X91.956 Y93.654 E9.57324
G1 X92.235 Y93.24 E9.59815
G1 X92.895 Y92.083 E9.66461
G1 X93.094 Y91.664 E9.68775
G1 X93.451 Y91.006 E9.7251
G1 X93.875 Y90.39 E9.76241
G1 X94.363 Y89.823 E9.79973
G0 F3600 X94.696 Y90.055
G1 F1800 X95.232 Y89.564 E9.83599
G1 X95.818 Y89.135 E9.87222
G1 X96.447 Y88.772 E9.90846
G1 X97.113 Y88.482 E9.9447
G1 X97.806 Y88.266 E9.98091
G1 X98.519 Y88.127 E10.01715
G1 X99.243 Y88.068 E10.05339
G1 X100.278 Y88.122 E10.1051
G1 X100.567 Y88.16 E10.11964
G1 X101.281 Y88.295 E10.15589
G1 X101.976 Y88.506 E10.19213
G1 X102.643 Y88.793 E10.22836
G1 X103.275 Y89.152 E10.26462
G1 X103.864 Y89.577 E10.30086
G1 X104.402 Y90.065 E10.33709
G1 X104.883 Y90.609 E10.37332
G1 X105.302 Y91.203 E10.40959
G1 X105.653 Y91.839 E10.44583
G1 X105.931 Y92.509 E10.48202
G1 X106.033 Y92.893 E10.50184
G1 X106.379 Y93.391 E10.53209
G1 X106.88 Y94.242 E10.58136
G1 X107.36 Y95.218 E10.63563
G1 X107.863 Y96.033 E10.68341
G1 X108.21 Y96.671 E10.71964
G1 X108.485 Y97.344 E10.75591
G1 X108.684 Y98.042 E10.79212
G1 X108.805 Y98.758 E10.82835
G1 X108.847 Y99.484 E10.86463
G1 X108.809 Y100.209 E10.90085
G1 X108.691 Y100.926 E10.9371
G1 X108.495 Y101.625 E10.97332
G1 X108.224 Y102.299 E11.00956
G1 X107.88 Y102.939 E11.04581
G1 X107.502 Y103.502 E11.07964
G1 X107.053 Y104.073 E11.11588
G1 X106.544 Y104.591 E11.15212
G1 X105.981 Y105.05 E11.18836
G1 X105.371 Y105.445 E11.22461
G1 X104.721 Y105.77 E11.26087
G1 X104.04 Y106.022 E11.2971
G1 X103.335 Y106.197 E11.33334
G1 X102.615 Y106.294 E11.36958
G1 X101.889 Y106.311 E11.40581
G1 X101.165 Y106.248 E11.44207
G1 X100.349 Y106.091 E11.48353
G1 X99.953 Y106.088 E11.50328
G1 X99.373 Y106.128 E11.53229
G1 X98.594 Y106.232 E11.5715
G1 X97.138 Y106.525 E11.64559
G1 X96.419 Y106.629 E11.68184
G1 X95.693 Y106.653 E11.71808
G1 X94.969 Y106.598 E11.7543
G1 X94.255 Y106.463 E11.79056
G1 X93.561 Y106.25 E11.82677
G1 X92.894 Y105.962 E11.86302
G1 X92.262 Y105.603 E11.89928
G1 X91.674 Y105.177 E11.93551
G1 X91.137 Y104.688 E11.97174
G1 X90.656 Y104.144 E12.00797
G1 X90.238 Y103.55 E12.04421
G1 X89.917 Y102.972 E12.07719
G1 X89.781 Y102.696 E12.09254
G1 X89.496 Y102.028 E12.12878
G1 X89.286 Y101.333 E12.165
G1 X89.155 Y100.618 E12.20126
G1 X89.102 Y99.894 E12.23748
G1 X89.129 Y99.168 E12.27372
G1 X89.236 Y98.449 E12.30999
G1 X89.422 Y97.747 E12.34622
G1 X89.683 Y97.069 E12.38247
G1 X90.017 Y96.425 E12.41866
G1 X90.42 Y95.82 E12.45493
G1 X90.887 Y95.264 E12.49115
G1 X91.364 Y94.804 E12.52421
G1 X91.836 Y94.393 E12.55544
G1 X92.274 Y93.897 E12.58845
G1 X92.581 Y93.441 E12.61588
G1 X93.255 Y92.259 E12.68376
G1 X93.456 Y91.836 E12.70713
G1 X93.803 Y91.197 E12.7434
G1 X94.218 Y90.601 E12.77964
G1 X94.696 Y90.055 E12.81584
G0 F3600 X95.028 Y90.288
G1 F1800 X95.553 Y89.818 E12.85099
G1 X96.127 Y89.411 E12.8861
G1 X96.744 Y89.072 E12.92122
G1 X97.395 Y88.805 E12.95633
G1 X98.073 Y88.614 E12.99147
G1 X98.768 Y88.5 E13.0266
G1 X99.471 Y88.466 E13.06172
G1 X100.226 Y88.519 E13.09948
G1 X100.515 Y88.557 E13.11402
G1 X101.207 Y88.688 E13.14916
G1 X101.879 Y88.897 E13.18427
G1 X102.524 Y89.181 E13.21943
G1 X103.132 Y89.536 E13.25455
G1 X103.695 Y89.957 E13.28963
G1 X104.208 Y90.44 E13.32478
G1 X104.662 Y90.978 E13.3599
G1 X105.053 Y91.563 E13.395
G1 X105.374 Y92.19 E13.43015
G1 X105.623 Y92.848 E13.46525
G1 X105.682 Y93.089 E13.47763
G1 X106.05 Y93.619 E13.50982
G1 X106.521 Y94.418 E13.55609
G1 X107.008 Y95.409 E13.61118
G1 X107.523 Y96.243 E13.66008
G1 X107.858 Y96.862 E13.69519
G1 X108.121 Y97.515 E13.73032
G1 X108.308 Y98.194 E13.76545
G1 X108.417 Y98.89 E13.8006
G1 X108.446 Y99.593 E13.8357
G1 X108.396 Y100.295 E13.87081
G1 X108.266 Y100.987 E13.90594
G1 X108.059 Y101.66 E13.94107
G1 X107.776 Y102.305 E13.97621
G1 X107.324 Y103.059 E14.02007
G1 X107.174 Y103.273 E14.03311
G1 X106.738 Y103.825 E14.0682
G1 X106.242 Y104.325 E14.10334
G1 X105.692 Y104.765 E14.13848
G1 X105.097 Y105.14 E14.17357
G1 X104.462 Y105.445 E14.20871
G1 X103.797 Y105.676 E14.24383
G1 X103.11 Y105.831 E14.27897
G1 X102.41 Y105.906 E14.31409
G1 X101.707 Y105.902 E14.34916
G1 X100.828 Y105.783 E14.39342
G1 X100.337 Y105.688 E14.41837
G1 X99.939 Y105.688 E14.43823
G1 X99.324 Y105.73 E14.46898
G1 X98.538 Y105.836 E14.50855
G1 X97.059 Y106.133 E14.58381
G1 X96.362 Y106.233 E14.61894
G1 X95.659 Y106.252 E14.65402
G1 X94.957 Y106.192 E14.68917
G1 X94.267 Y106.053 E14.72429
G1 X93.597 Y105.836 E14.75943
G1 X92.956 Y105.545 E14.79455
G1 X92.352 Y105.183 E14.82968
G1 X91.794 Y104.755 E14.86476
G1 X91.287 Y104.266 E14.89991
G1 X90.839 Y103.723 E14.93503
G1 X90.455 Y103.133 E14.97015
G1 X90.14 Y102.519 E15.00457
G1 X89.865 Y101.871 E15.03969
G1 X89.665 Y101.196 E15.07482
G1 X89.543 Y100.503 E15.10992
G1 X89.501 Y99.8 E15.14506
G1 X89.539 Y99.097 E15.18018
G1 X89.656 Y98.403 E15.21529
G1 X89.851 Y97.726 E15.25044
G1 X90.121 Y97.076 E15.28556
G1 X90.463 Y96.461 E15.32067
G1 X90.873 Y95.889 E15.35578
G1 X91.345 Y95.367 E15.39089
G1 X91.627 Y95.106 E15.41006
G1 X92.11 Y94.685 E15.44202
G1 X92.602 Y94.126 E15.47918
G1 X92.921 Y93.654 E15.5076
G1 X93.604 Y92.455 E15.57644
G1 X93.817 Y92.007 E15.60119
G1 X94.155 Y91.389 E15.63633
G1 X94.56 Y90.814 E15.67142
G1 X95.028 Y90.288 E15.70655
G0 F3600 X95.359 Y90.523
G1 F1800 X95.872 Y90.076 E15.74049
G1 X96.435 Y89.692 E15.77449
G1 X97.038 Y89.377 E15.80843
G1 X97.674 Y89.134 E15.8424
G1 X98.335 Y88.968 E15.8764
G1 X99.01 Y88.88 E15.91036
G1 X99.691 Y88.872 E15.94434
G1 X100.463 Y88.953 E15.98307
G1 X101.132 Y89.082 E16.01706
G1 X101.781 Y89.287 E16.05101
G1 X102.401 Y89.568 E16.08497
G1 X102.985 Y89.919 E16.11897
G1 X103.523 Y90.336 E16.15293
G1 X104.008 Y90.813 E16.18687
G1 X104.435 Y91.344 E16.22086
G1 X104.796 Y91.921 E16.25482
G1 X105.087 Y92.537 E16.28881
G1 X105.304 Y93.182 E16.32276
G1 X105.325 Y93.275 E16.32751
G1 X105.722 Y93.847 E16.36225
G1 X106.162 Y94.595 E16.40555
G1 X106.659 Y95.605 E16.46171
G1 X107.182 Y96.453 E16.51141
G1 X107.505 Y97.053 E16.54541
G1 X107.756 Y97.686 E16.57938
G1 X107.931 Y98.344 E16.61335
G1 X108.027 Y99.018 E16.64731
G1 X108.044 Y99.699 E16.6813
G1 X107.98 Y100.377 E16.71528
G1 X107.838 Y101.042 E16.7492
G1 X107.619 Y101.687 E16.78318
G1 X107.326 Y102.302 E16.81717
G1 X106.996 Y102.829 E16.84819
G1 X106.846 Y103.043 E16.86123
G1 X106.424 Y103.577 E16.89519
G1 X105.941 Y104.057 E16.92916
G1 X105.406 Y104.478 E16.96312
G1 X104.825 Y104.833 E16.99709
G1 X104.206 Y105.117 E17.03107
G1 X103.558 Y105.327 E17.06505
G1 X102.89 Y105.459 E17.09903
G1 X102.212 Y105.513 E17.13296
G1 X101.531 Y105.486 E17.16696
G1 X100.91 Y105.391 E17.1983
G1 X100.358 Y105.288 E17.22632
G1 X99.926 Y105.287 E17.24787
G1 X99.29 Y105.332 E17.27968
G1 X98.467 Y105.442 E17.3211
G1 X96.98 Y105.741 E17.39678
G1 X96.306 Y105.836 E17.43073
G1 X95.625 Y105.851 E17.46472
G1 X94.948 Y105.786 E17.49865
G1 X94.282 Y105.643 E17.53263
G1 X93.638 Y105.422 E17.5666
G1 X93.024 Y105.127 E17.60059
G1 X92.449 Y104.763 E17.63454
G1 X91.921 Y104.333 E17.66851
G1 X91.446 Y103.845 E17.70249
G1 X91.032 Y103.304 E17.73647
G1 X90.634 Y102.619 E17.776
G1 X90.498 Y102.343 E17.79135
G1 X90.234 Y101.715 E17.82533
G1 X90.045 Y101.061 E17.8593
G1 X89.933 Y100.389 E17.89329
G1 X89.901 Y99.709 E17.92725
G1 X89.95 Y99.03 E17.96121
G1 X90.077 Y98.361 E17.99519
G1 X90.282 Y97.712 E18.02914
G1 X90.561 Y97.091 E18.06311
G1 X90.912 Y96.507 E18.0971
G1 X91.328 Y95.969 E18.13103
G1 X91.889 Y95.407 E18.17065
G1 X92.389 Y94.971 E18.20374
G1 X92.922 Y94.367 E18.24393
G1 X93.257 Y93.869 E18.27387
G1 X93.961 Y92.636 E18.34471
G1 X94.178 Y92.179 E18.36995
G1 X94.506 Y91.582 E18.40393
G1 X94.901 Y91.027 E18.43792
G1 X95.359 Y90.523 E18.4719
G0 F3600 X95.242 Y91.242
G1 F1800 X95.689 Y90.761 E18.50465
G1 X96.19 Y90.337 E18.5374
G1 X96.74 Y89.977 E18.57019
G1 X97.329 Y89.686 E18.60297
G1 X97.949 Y89.47 E18.63573
G1 X98.591 Y89.33 E18.66851
G1 X99.245 Y89.269 E18.70128
G1 X100.122 Y89.312 E18.74508
G1 X100.411 Y89.35 E18.75963
