;FLAVOR:Marlin
;TIME:941
;Filament used: 0.886801m
;Layer height: 0.2
;MINX:60.579
;MINY:73.532
;MINZ:0.3
;MAXX:89.525
;MAXY:125.162
;MAXZ:14.3
;Generated with Cura_SteamEngine 4.13.1
M140 S60
M105
M190 S60
M104 S200
M105
M109 S200
M82 ;absolute extrusion mode
G21 ;metric values
 G90 ;absolute positioning
 M82 ;set extruder to absolute mode
 M107 ;start with the fan off
 G28 X0 Y0 ;move X/Y to min endstops
 G28 Z0 ;move Z to min endstops
 G1 Z15.0 F120 ;move the platform down 15mm
 G92 E0 ;zero the extruded length
 G1 F200 E6 ;extrude 6 mm of feed stock
 G92 E0 ;zero the extruded length again
 G1 F120 
 ;Put printing message on LCD screen
 M117 Printing...
G92 E0
G92 E0
G1 F1500 E-6.5
;LAYER_COUNT:71
;LAYER:0
M107
G0 F3600 X65.994 Y78.644 Z0.3
;TYPE:SKIRT
G1 F1500 E0
G1 F3000 X66.649 Y78.202 E0.03942
G1 X67.345 Y77.829 E0.07882
G1 X68.075 Y77.528 E0.11821
G1 X68.832 Y77.303 E0.15761
G1 X69.607 Y77.155 E0.19698
G1 X70.394 Y77.086 E0.23639
G1 X71.184 Y77.097 E0.27581
G1 X71.968 Y77.188 E0.31518
G1 X72.739 Y77.358 E0.35457
G1 X73.034 Y77.455 E0.37007
G1 X73.139 Y77.316 E0.37876
G1 X73.619 Y76.795 E0.4141
G1 X74.205 Y76.265 E0.45352
G1 X74.59 Y75.97 E0.47772
G1 X75.946 Y74.998 E0.56095
G1 X76.61 Y74.571 E0.60034
G1 X77.314 Y74.214 E0.63972
G1 X78.051 Y73.929 E0.67914
G1 X78.562 Y73.78 E0.7057
G1 X79.335 Y73.617 E0.74511
G1 X80.12 Y73.532 E0.7845
G1 X81.271 Y73.553 E0.84194
G1 X82.197 Y73.638 E0.88833
G1 X82.979 Y73.75 E0.92774
G1 X83.745 Y73.94 E0.96712
G1 X84.488 Y74.207 E1.0065
G1 X85.201 Y74.547 E1.04591
G1 X85.875 Y74.958 E1.0853
G1 X86.504 Y75.435 E1.12468
G1 X87.082 Y75.974 E1.16411
G1 X87.603 Y76.568 E1.20353
G1 X88.061 Y77.211 E1.24292
G1 X88.451 Y77.897 E1.28228
G1 X88.77 Y78.62 E1.32171
G1 X88.936 Y79.132 E1.34856
G1 X89.126 Y79.616 E1.3745
G1 X89.337 Y80.377 E1.4139
G1 X89.471 Y81.155 E1.45329
G1 X89.525 Y81.943 E1.49269
G1 X89.499 Y82.732 E1.53208
G1 X89.393 Y83.515 E1.5715
G1 X89.209 Y84.283 E1.6109
G1 X88.949 Y85.028 E1.65027
G1 X88.614 Y85.744 E1.6897
G1 X88.292 Y86.293 E1.72146
G1 X87.546 Y87.454 E1.79031
G1 X87.723 Y87.702 E1.80551
G1 X88.114 Y88.388 E1.8449
G1 X88.433 Y89.11 E1.88428
G1 X88.677 Y89.861 E1.92368
G1 X88.845 Y90.633 E1.96309
G1 X88.933 Y91.418 E2.0025
G1 X88.948 Y91.898 E2.02646
G1 X88.948 Y117.245 E3.29103
G1 X88.908 Y118.034 E3.33044
G1 X88.789 Y118.814 E3.36981
G1 X88.591 Y119.579 E3.40923
G1 X88.317 Y120.319 E3.4486
G1 X87.969 Y121.028 E3.488
G1 X87.551 Y121.699 E3.52744
G1 X87.068 Y122.323 E3.56681
G1 X86.663 Y122.76 E3.59654
G1 X86.546 Y122.877 E3.60479
G1 X85.96 Y123.407 E3.64421
G1 X85.324 Y123.874 E3.68358
G1 X84.644 Y124.275 E3.72296
G1 X83.926 Y124.605 E3.76238
G1 X83.179 Y124.86 E3.80176
G1 X82.41 Y125.039 E3.84115
G1 X81.626 Y125.139 E3.88058
G1 X81.031 Y125.162 E3.91029
G1 X75.391 Y125.162 E4.19167
G1 X74.602 Y125.122 E4.23109
G1 X73.822 Y125.003 E4.27045
G1 X73.057 Y124.805 E4.30987
G1 X72.317 Y124.531 E4.34924
G1 X71.608 Y124.183 E4.38865
G1 X70.937 Y123.765 E4.42809
G1 X70.313 Y123.282 E4.46745
G1 X69.876 Y122.877 E4.49718
G1 X69.759 Y122.76 E4.50544
G1 X69.229 Y122.174 E4.54485
G1 X68.762 Y121.538 E4.58422
G1 X68.361 Y120.858 E4.6236
G1 X68.031 Y120.14 E4.66303
G1 X67.776 Y119.393 E4.70241
G1 X67.597 Y118.624 E4.7418
G1 X67.497 Y117.84 E4.78123
G1 X67.474 Y117.245 E4.81094
G1 X67.474 Y100.444 E5.64914
G1 X66.957 Y100.183 E5.67804
G1 X66.922 Y100.171 E5.67988
G1 X66.207 Y99.836 E5.71927
G1 X65.529 Y99.431 E5.75868
G1 X64.984 Y99.021 E5.7927
G1 X64.48 Y98.647 E5.82401
G1 X64.41 Y98.591 E5.82848
G1 X63.992 Y98.224 E5.85624
G1 X63.743 Y98.018 E5.87236
G1 X63.161 Y97.484 E5.91176
G1 X62.635 Y96.895 E5.95116
G1 X62.172 Y96.255 E5.99057
G1 X61.776 Y95.572 E6.02996
G1 X61.451 Y94.852 E6.06937
G1 X61.145 Y93.891 E6.11969
G1 X60.803 Y92.517 E6.19033
G1 X60.651 Y91.742 E6.22973
G1 X60.579 Y90.956 E6.26911
G1 X60.586 Y90.166 E6.30852
G1 X60.681 Y89.336 E6.3502
G1 X60.813 Y88.591 E6.38795
G1 X60.985 Y87.799 E6.42838
G1 X61.095 Y87.453 E6.4465
G1 X61.266 Y86.741 E6.48303
G1 X61.459 Y86.166 E6.51329
G1 X61.634 Y85.705 E6.53789
G1 X61.934 Y85.015 E6.57543
G1 X61.988 Y84.906 E6.58149
G1 X62.29 Y84.103 E6.6243
G1 X62.709 Y83.178 E6.67496
G1 X63.276 Y82.115 E6.73506
G1 X63.395 Y81.9 E6.74732
G1 X63.915 Y80.995 E6.7994
G1 X64.342 Y80.331 E6.83878
G1 X64.835 Y79.714 E6.87818
G1 X65.387 Y79.15 E6.91756
G1 X65.994 Y78.644 E6.95698
G0 F3600 X66.298 Y78.916
G1 F3000 X66.941 Y78.494 E6.99535
G1 X67.624 Y78.14 E7.03373
G1 X68.341 Y77.86 E7.07213
G1 X69.082 Y77.655 E7.11049
G1 X69.841 Y77.529 E7.14888
G1 X70.608 Y77.481 E7.18722
G1 X71.377 Y77.514 E7.22562
G1 X72.138 Y77.626 E7.26399
G1 X72.883 Y77.817 E7.30236
G1 X73.179 Y77.926 E7.3181
G1 X73.458 Y77.558 E7.34114
G1 X73.901 Y77.077 E7.37376
G1 X74.473 Y76.563 E7.41213
G1 X74.823 Y76.296 E7.43409
G1 X76.179 Y75.324 E7.51733
G1 X76.826 Y74.909 E7.55568
G1 X77.514 Y74.563 E7.5941
G1 X78.596 Y74.184 E7.6513
G1 X78.664 Y74.166 E7.65481
G1 X79.417 Y74.008 E7.69319
G1 X80.182 Y73.93 E7.73155
G1 X81.234 Y73.951 E7.78405
G1 X82.16 Y74.036 E7.83044
G1 X82.922 Y74.146 E7.86885
G1 X83.667 Y74.334 E7.90719
G1 X84.39 Y74.599 E7.9456
G1 X85.08 Y74.938 E7.98396
G1 X85.732 Y75.346 E8.02233
G1 X86.338 Y75.82 E8.06071
G1 X86.892 Y76.354 E8.0991
G1 X87.387 Y76.942 E8.13745
G1 X87.818 Y77.579 E8.17582
G1 X88.181 Y78.257 E8.21419
G1 X88.472 Y78.969 E8.25256
G1 X88.537 Y79.202 E8.26463
G1 X88.771 Y79.819 E8.29755
G1 X88.968 Y80.562 E8.3359
G1 X89.087 Y81.322 E8.37428
G1 X89.126 Y82.09 E8.41264
G1 X89.085 Y82.858 E8.45101
G1 X88.965 Y83.618 E8.4894
G1 X88.767 Y84.361 E8.52776
G1 X88.492 Y85.08 E8.56617
G1 X87.956 Y86.077 E8.62264
G1 X87.398 Y86.946 E8.67416
G1 X87.066 Y87.458 E8.70461
G1 X87.085 Y87.481 E8.7061
G1 X87.512 Y88.121 E8.74448
G1 X87.869 Y88.802 E8.78284
G1 X88.154 Y89.517 E8.82124
G1 X88.364 Y90.257 E8.85962
G1 X88.495 Y91.015 E8.898
G1 X88.548 Y91.898 E8.94213
G1 X88.548 Y117.245 E10.2067
G1 X88.508 Y118.013 E10.24506
G1 X88.389 Y118.773 E10.28344
G1 X88.191 Y119.516 E10.3218
G1 X87.917 Y120.235 E10.36019
G1 X87.57 Y120.921 E10.39855
G1 X87.154 Y121.568 E10.43692
G1 X86.673 Y122.168 E10.47529
G1 X86.264 Y122.595 E10.50479
G1 X85.692 Y123.109 E10.54315
G1 X85.07 Y123.562 E10.58154
G1 X84.405 Y123.948 E10.6199
G1 X83.703 Y124.263 E10.65829
G1 X82.972 Y124.503 E10.69667
G1 X82.221 Y124.666 E10.73501
G1 X81.456 Y124.75 E10.77341
G1 X81.031 Y124.762 E10.79462
G1 X75.391 Y124.762 E11.076
G1 X74.623 Y124.722 E11.11437
G1 X73.863 Y124.603 E11.15275
G1 X73.12 Y124.405 E11.19111
G1 X72.401 Y124.131 E11.2295
G1 X71.715 Y123.784 E11.26785
G1 X71.068 Y123.368 E11.30623
G1 X70.468 Y122.887 E11.34459
G1 X70.041 Y122.478 E11.37409
G1 X69.527 Y121.906 E11.41246
G1 X69.074 Y121.284 E11.45085
G1 X68.688 Y120.619 E11.48921
G1 X68.373 Y119.917 E11.5276
G1 X68.133 Y119.186 E11.56598
G1 X67.97 Y118.435 E11.60432
G1 X67.886 Y117.67 E11.64272
G1 X67.874 Y117.245 E11.66393
G1 X67.874 Y100.199 E12.51436
G1 X67.113 Y99.814 E12.5569
G1 X67.055 Y99.793 E12.55998
G1 X66.359 Y99.464 E12.59839
G1 X65.702 Y99.065 E12.63674
G1 X65.176 Y98.667 E12.66965
G1 X64.73 Y98.334 E12.69742
G1 X64.66 Y98.278 E12.70189
G1 X64.234 Y97.904 E12.73017
G1 X63.998 Y97.709 E12.74544
G1 X63.431 Y97.189 E12.78383
G1 X62.922 Y96.613 E12.82217
G1 X62.475 Y95.987 E12.86055
G1 X62.096 Y95.318 E12.89891
G1 X61.788 Y94.613 E12.93729
G1 X61.533 Y93.794 E12.98009
G1 X61.191 Y92.42 E13.05073
G1 X61.044 Y91.665 E13.0891
G1 X60.977 Y90.899 E13.12747
G1 X60.989 Y90.13 E13.16584
G1 X61.075 Y89.402 E13.20241
G1 X61.205 Y88.674 E13.2393
G1 X61.382 Y87.863 E13.28072
G1 X61.482 Y87.558 E13.29673
G1 X61.655 Y86.834 E13.33387
G1 X61.833 Y86.308 E13.36157
G1 X62.008 Y85.847 E13.38617
G1 X62.293 Y85.193 E13.42176
G1 X62.356 Y85.066 E13.42884
G1 X62.665 Y84.244 E13.47265
G1 X63.062 Y83.366 E13.52072
G1 X63.629 Y82.303 E13.58083
G1 X63.742 Y82.099 E13.59246
G1 X64.262 Y81.194 E13.64454
G1 X64.679 Y80.548 E13.6829
G1 X65.161 Y79.949 E13.72125
G1 X65.703 Y79.403 E13.75964
G1 X66.298 Y78.916 E13.798
G0 F3600 X66.602 Y79.19
G1 F3000 X67.232 Y78.788 E13.83528
G1 X67.902 Y78.455 E13.87261
G1 X68.604 Y78.195 E13.90996
G1 X69.329 Y78.012 E13.94726
G1 X70.07 Y77.907 E13.9846
G1 X70.817 Y77.882 E14.02189
G1 X71.563 Y77.937 E14.05921
G1 X72.299 Y78.071 E14.09653
G1 X73.017 Y78.283 E14.13388
G1 X73.324 Y78.396 E14.1502
G1 X73.777 Y77.8 E14.18755
G1 X74.184 Y77.36 E14.21745
G1 X74.741 Y76.86 E14.25479
G1 X75.056 Y76.621 E14.27452
G1 X76.412 Y75.649 E14.35776
G1 X77.042 Y75.246 E14.39507
G1 X77.712 Y74.913 E14.4324
G1 X78.699 Y74.571 E14.48451
G1 X78.767 Y74.553 E14.48802
G1 X79.499 Y74.401 E14.52532
G1 X80.244 Y74.327 E14.56267
G1 X81.198 Y74.349 E14.61028
G1 X82.124 Y74.434 E14.65667
G1 X82.864 Y74.542 E14.69398
G1 X83.589 Y74.729 E14.73133
G1 X84.289 Y74.992 E14.76864
G1 X84.957 Y75.328 E14.80595
G1 X85.586 Y75.733 E14.84327
G1 X86.168 Y76.203 E14.88059
G1 X86.696 Y76.733 E14.91792
G1 X87.165 Y77.315 E14.95521
G1 X87.569 Y77.945 E14.99254
G1 X87.904 Y78.614 E15.02987
G1 X88.165 Y79.315 E15.06719
G1 X88.189 Y79.405 E15.07184
G1 X88.415 Y80.019 E15.10448
G1 X88.597 Y80.745 E15.14182
G1 X88.7 Y81.486 E15.17914
G1 X88.724 Y82.234 E15.21648
G1 X88.668 Y82.979 E15.25375
G1 X88.533 Y83.715 E15.29109
G1 X88.32 Y84.432 E15.3284
G1 X88.032 Y85.123 E15.36575
G1 X87.619 Y85.861 E15.40794
G1 X87.063 Y86.728 E15.45933
G1 X86.571 Y87.486 E15.50441
G1 X86.896 Y87.903 E15.53079
G1 X87.29 Y88.539 E15.56811
G1 X87.613 Y89.214 E15.60545
G1 X87.862 Y89.919 E15.64275
G1 X88.035 Y90.647 E15.68008
G1 X88.129 Y91.389 E15.7174
G1 X88.148 Y91.898 E15.74281
G1 X88.148 Y117.245 E17.00737
G1 X88.108 Y117.992 E17.0447
G1 X87.989 Y118.73 E17.08199
G1 X87.791 Y119.452 E17.11934
G1 X87.518 Y120.148 E17.15664
G1 X87.171 Y120.811 E17.19397
G1 X86.756 Y121.434 E17.23132
G1 X86.098 Y122.195 E17.28151
G1 X85.981 Y122.312 E17.28977
G1 X85.424 Y122.812 E17.32711
G1 X84.818 Y123.249 E17.36438
G1 X84.168 Y123.62 E17.40172
G1 X83.482 Y123.919 E17.43906
G1 X82.768 Y124.143 E17.47639
G1 X82.035 Y124.29 E17.51369
G1 X81.031 Y124.362 E17.56391
G1 X75.391 Y124.362 E17.84529
G1 X74.644 Y124.322 E17.88261
G1 X73.906 Y124.203 E17.9199
G1 X73.184 Y124.005 E17.95725
G1 X72.488 Y123.732 E17.99455
G1 X71.825 Y123.385 E18.03189
G1 X71.202 Y122.97 E18.06923
G1 X70.441 Y122.312 E18.11942
G1 X70.324 Y122.195 E18.12768
G1 X69.824 Y121.638 E18.16502
G1 X69.387 Y121.032 E18.20229
G1 X69.016 Y120.382 E18.23963
G1 X68.717 Y119.696 E18.27697
G1 X68.493 Y118.982 E18.3143
G1 X68.346 Y118.249 E18.3516
G1 X68.274 Y117.245 E18.40182
G1 X68.274 Y99.938 E19.26527
G1 X68.055 Y99.843 E19.27718
G1 X67.329 Y99.476 E19.31776
G1 X67.188 Y99.415 E19.32543
G1 X66.513 Y99.092 E19.36276
G1 X65.876 Y98.699 E19.4001
G1 X65.402 Y98.337 E19.42986
G1 X64.98 Y98.022 E19.45613
G1 X64.91 Y97.966 E19.4606
G1 X64.459 Y97.571 E19.49051
G1 X64.253 Y97.401 E19.50384
G1 X63.703 Y96.894 E19.54116
G1 X63.21 Y96.332 E19.57845
G1 X62.78 Y95.719 E19.61581
G1 X62.417 Y95.065 E19.65313
G1 X62.127 Y94.376 E19.69042
G1 X61.921 Y93.698 E19.72578
G1 X61.579 Y92.324 E19.79642
G1 X61.438 Y91.589 E19.83375
G1 X61.375 Y90.844 E19.87105
G1 X61.393 Y90.096 E19.90838
G1 X61.469 Y89.469 E19.93989
G1 X61.596 Y88.757 E19.97598
G1 X61.779 Y87.927 E20.01838
G1 X61.869 Y87.655 E20.03267
G1 X62.045 Y86.928 E20.06999
G1 X62.207 Y86.45 E20.09517
G1 X62.382 Y85.989 E20.11977
G1 X62.651 Y85.37 E20.15344
G1 X62.722 Y85.226 E20.16145
G1 X63.039 Y84.384 E20.20634
G1 X63.415 Y83.555 E20.25175
G1 X63.982 Y82.492 E20.31186
G1 X64.089 Y82.299 E20.32287
G1 X64.609 Y81.394 E20.37494
G1 X65.015 Y80.766 E20.41225
G1 X65.487 Y80.185 E20.4496
G1 X66.018 Y79.658 E20.48692
G1 X66.602 Y79.19 E20.52426
G0 F3600 X66.903 Y79.467
G1 F3000 X67.521 Y79.085 E20.56051
G1 X68.177 Y78.773 E20.59675
G1 X68.864 Y78.535 E20.63302
G1 X69.572 Y78.374 E20.66924
G1 X70.294 Y78.292 E20.7055
G1 X71.02 Y78.29 E20.74172
G1 X71.742 Y78.367 E20.77794
G1 X72.451 Y78.524 E20.81417
G1 X73.139 Y78.757 E20.85041
G1 X73.459 Y78.907 E20.86804
G1 X73.654 Y78.62 E20.88535
G1 X74.095 Y78.043 E20.92158
G1 X74.467 Y77.643 E20.94884
G1 X75.289 Y76.946 E21.0026
G1 X76.645 Y75.974 E21.08584
G1 X77.258 Y75.584 E21.12209
G1 X77.91 Y75.263 E21.15834
G1 X78.801 Y74.958 E21.20533
G1 X78.869 Y74.94 E21.20884
G1 X79.58 Y74.793 E21.24506
G1 X80.304 Y74.725 E21.28134
G1 X81.161 Y74.748 E21.32411
G1 X82.087 Y74.833 E21.3705
G1 X82.806 Y74.939 E21.40676
G1 X83.508 Y75.123 E21.44297
G1 X84.186 Y75.384 E21.47921
G1 X84.832 Y75.717 E21.51547
G1 X85.437 Y76.119 E21.55171
G1 X85.993 Y76.586 E21.58794
G1 X86.496 Y77.11 E21.62418
G1 X86.937 Y77.687 E21.66041
G1 X87.313 Y78.309 E21.69667
G1 X87.618 Y78.968 E21.7329
G1 X87.791 Y79.487 E21.76019
G1 X87.814 Y79.534 E21.7628
G1 X88.057 Y80.218 E21.79902
G1 X88.224 Y80.925 E21.83526
G1 X88.312 Y81.646 E21.8715
G1 X88.32 Y82.372 E21.90772
G1 X88.248 Y83.095 E21.94397
G1 X88.097 Y83.806 E21.98023
G1 X87.869 Y84.495 E22.01644
G1 X87.567 Y85.156 E22.05269
G1 X87.282 Y85.645 E22.08093
G1 X86.727 Y86.511 E22.13225
G1 X86.164 Y87.379 E22.18386
G1 X86.067 Y87.512 E22.19208
G1 X86.27 Y87.736 E22.20716
G1 X86.697 Y88.324 E22.24341
G1 X87.056 Y88.955 E22.27963
G1 X87.343 Y89.622 E22.31586
G1 X87.556 Y90.317 E22.35212
G1 X87.691 Y91.031 E22.38838
G1 X87.748 Y91.898 E22.43173
G1 X87.748 Y117.245 E23.69629
G1 X87.708 Y117.97 E23.73252
G1 X87.589 Y118.687 E23.76878
G1 X87.391 Y119.386 E23.80502
G1 X87.118 Y120.059 E23.84126
G1 X86.773 Y120.698 E23.87749
G1 X86.359 Y121.295 E23.91373
G1 X85.815 Y121.912 E23.95477
G1 X85.698 Y122.029 E23.96303
G1 X85.157 Y122.513 E23.99924
G1 X84.566 Y122.936 E24.0355
G1 X83.932 Y123.29 E24.07173
G1 X83.263 Y123.573 E24.10797
G1 X82.567 Y123.781 E24.14421
G1 X81.852 Y123.911 E24.18046
G1 X81.031 Y123.962 E24.2215
G1 X75.391 Y123.962 E24.50288
G1 X74.666 Y123.922 E24.53911
G1 X73.949 Y123.803 E24.57537
G1 X73.25 Y123.605 E24.61162
G1 X72.577 Y123.332 E24.64785
G1 X71.938 Y122.987 E24.68408
G1 X71.341 Y122.573 E24.72032
G1 X70.724 Y122.029 E24.76136
G1 X70.607 Y121.912 E24.76962
G1 X70.123 Y121.371 E24.80583
G1 X69.7 Y120.78 E24.84209
G1 X69.346 Y120.146 E24.87832
G1 X69.063 Y119.477 E24.91456
G1 X68.855 Y118.781 E24.9508
G1 X68.725 Y118.066 E24.98706
G1 X68.674 Y117.245 E25.02809
G1 X68.674 Y99.676 E25.90462
G1 X68.214 Y99.476 E25.92964
G1 X67.53 Y99.13 E25.96788
G1 X67.321 Y99.037 E25.9793
G1 X66.668 Y98.721 E26.01549
G1 X66.053 Y98.334 E26.05174
G1 X65.62 Y98 E26.07902
G1 X65.16 Y97.654 E26.10774
G1 X64.715 Y97.264 E26.13726
G1 X64.508 Y97.093 E26.15066
G1 X63.974 Y96.6 E26.18691
G1 X63.498 Y96.051 E26.22317
G1 X63.085 Y95.454 E26.25938
G1 X62.741 Y94.814 E26.29563
G1 X62.468 Y94.141 E26.33187
G1 X62.309 Y93.601 E26.35995
G1 X61.967 Y92.227 E26.43059
G1 X61.831 Y91.514 E26.4668
G1 X61.774 Y90.79 E26.50304
G1 X61.797 Y90.064 E26.53927
G1 X61.864 Y89.535 E26.56588
G1 X61.987 Y88.841 E26.60104
G1 X62.176 Y87.993 E26.64439
G1 X62.262 Y87.728 E26.65829
G1 X62.434 Y87.022 E26.69454
G1 X62.756 Y86.131 E26.7418
G1 X63.01 Y85.547 E26.77358
G1 X63.092 Y85.382 E26.78277
G1 X63.414 Y84.525 E26.82844
G1 X63.768 Y83.743 E26.87127
G1 X64.335 Y82.68 E26.93137
G1 X64.435 Y82.498 E26.94173
G1 X64.955 Y81.593 E26.99381
G1 X65.351 Y80.984 E27.03005
G1 X65.812 Y80.422 E27.06631
G1 X66.331 Y79.914 E27.10255
G1 X66.903 Y79.467 E27.13876
G0 F3600 X67.204 Y79.746
G1 F3000 X67.808 Y79.385 E27.17387
G1 X68.45 Y79.095 E27.20902
G1 X69.12 Y78.88 E27.24412
G1 X69.81 Y78.742 E27.27923
G1 X70.512 Y78.683 E27.31437
G1 X71.216 Y78.704 E27.34951
G1 X71.912 Y78.805 E27.3846
G1 X72.593 Y78.984 E27.41973
G1 X73.249 Y79.239 E27.45484
G1 X73.597 Y79.422 E27.47446
G1 X73.647 Y79.342 E27.47916
G1 X73.985 Y78.845 E27.50915
G1 X74.414 Y78.287 E27.54427
G1 X74.75 Y77.926 E27.56887
G1 X75.522 Y77.271 E27.61938
G1 X76.878 Y76.299 E27.70262
G1 X77.472 Y75.922 E27.73772
G1 X78.106 Y75.615 E27.77286
G1 X78.903 Y75.344 E27.81486
G1 X78.971 Y75.326 E27.81837
G1 X79.661 Y75.185 E27.8535
G1 X80.362 Y75.123 E27.88861
G1 X81.125 Y75.146 E27.9267
G1 X82.051 Y75.231 E27.97309
G1 X82.747 Y75.335 E28.0082
G1 X83.427 Y75.517 E28.04332
G1 X84.082 Y75.776 E28.07846
G1 X84.703 Y76.106 E28.11354
